X:337
T:House of Park, The
R:Reel
C:William Marshall
B:The Athole Collection
M:C|
L:1/8
K:F
B|AB/c/ cA Bc/d/ dB|cAFA G2 GB|AB/c/ cA Bc/d/ df|cAfA F2F:|
f|affa geeg|fdcA G2 Gg|affa geeg|cAfA F2 Ff|affa geeg|fdcA G2 Gg|
afaf gege|fdcA F2F||

